X:1280
T:The Goldfinch
R:Reel
N:Collected by O'Reilly
B:O'Neill's 1280
Z:Transcribed by Trish O'Neil
M:C|
L:1/8
K:A
Ac|e2eaf2af|e2ae fece|e2af ecAc|cBABc BAFB|
A2eaf2af|e2ae fecf|e2af ecAc|BABcA2||
c2|ecBcA2Ac|B2Bd ceaf|ecBcA2ce|fbba geaf|
ecBeA2Ac|B2Bd ceaf|ecBcA2ce|fagea2|]
